X: 1
T: Den Lille Hamborger  [G]
O: Denmark
M: 2/4
L: 1/16
S: handwritten MS of unknown origin
Z: 2009 John Chambers <jc:trillian.mit.edu>
K: G
|: "G"d2d2 d3c  |    B2B2 B3A  |    G2B2     e3d  |"D7"d2c2  c4 \
|     c2c2 c3B  |    A2A2 A3G  |1   F2A2     d3c  | "G"c2B2  B2z2 :|2 "D7"F2D2 E2F2 | "G"G2G2 G2z2 ||
|:"D7"FGAB cdef |    g2B2 d4   | "C"e2ef     g2fe | "G"e2d^c d4 \
|  "C"c2cd e2dc | "G"B2Bc d2cB |"Am"A2AB "D7"c2BA | "G"A2G2  G2z2 :|
